src/assets/icons/countries-icon.svg

<svg width="48" height="48" viewBox="0 0 48 48" fill="none" xmlns="http://www.w3.org/2000/svg">
<path d="M24.6223 22.9949H23.6344L23.4933 22.0776L23.705 21.6189L23.1758 21.0544L22.8229 19.7842L22.6112 19.3609V18.5846L22.2231 17.7732V18.0554L21.9762 18.5846L21.7998 18.4082L20.1768 19.7842L18.9772 18.5846L19.2241 18.3024L19.4006 18.0554L19.5064 17.632L19.2241 17.7732L18.9772 17.9143L19.083 17.2792L18.9772 16.1502L19.2241 15.5504V15.127V14.6683L20.1768 13.8921H20.7413L20.459 13.4687L20.9883 13.2923L21.1647 13.6804V13.2923L21.9762 12.8336L22.6112 13.1159L22.9641 12.2691L22.4348 12.9748L21.9762 12.6219L22.8229 11.7046H23.1758L23.3875 10.999H23.705V10.2933L24.0578 9.7288H24.3754V9.48183L24.0578 9.27013L24.9399 8.3528L24.7635 8.10582L25.2574 7.96469V7.78828L25.0457 7.50602L25.328 7.1532H25.7514L25.6808 6.87094L25.8925 6.48284L25.9983 6.23586L26.2806 6.02417L26.1042 5.88304L25.9983 5.5655L26.4217 5.28324V5.88304L26.6334 5.63606L26.7393 5.35381L26.6334 5.03627L27.0215 4.71873V5.10683L27.3038 5.03627L27.1627 4.61288L27.5508 4.40119V5.03627L27.7624 4.71873L27.9741 4.89514L28.1506 4.71873L27.8683 4.33062L28.1153 4.15421L28.8209 4.50703L28.7504 3.55441L29.0679 3.80139L29.209 3.09574L29.4207 3.27215V2.9899H29.703L29.3502 4.26006H29.5971L29.9147 3.13102L30.0558 3.09574L30.0205 3.80139H30.2675V3.06046L30.7967 2.74292V2.9899L30.6909 3.55441H30.8673L31.0437 2.9899L32.0316 3.58969L31.6788 3.87195H31.1848L31.2201 4.08364L32.1022 4.50703L31.5376 5.35381L31.0084 5.10683L30.9379 5.74191L31.4318 5.53022V6.23586L31.6082 6.37699L32.455 7.08263L32.3139 7.40018L32.1022 8.07054L32.9489 9.27013L32.8431 9.48183L32.9489 10.5403H33.2312V10.999L33.584 11.3871L33.4076 11.9163L34.3955 12.6219V13.1159L32.8431 15.9385L30.1616 17.2086L29.456 16.6088L28.8915 16.4677L28.962 15.7268L29.0326 15.127L28.7856 14.8447L28.6092 13.6804L29.1032 12.9748L30.1616 11.1401L30.585 10.752L30.5145 10.2933L29.8441 9.86993L28.9268 9.9405L28.5034 10.5403L28.327 11.2812L28.6092 11.7046L28.327 12.2691L27.0921 13.4687L26.5276 14.6683V16.4677L27.586 17.385V17.632L26.2453 19.2197L26.1042 21.0544L25.8572 21.8306L25.4691 22.1481H24.9399L24.6223 22.4304V22.9949Z" stroke="black" stroke-width="0.214901"/>
<path d="M33.4076 19.2197L33.2312 19.7842L33.6899 20.384L34.0074 20.7721L34.2191 21.3014L34.5719 21.6189V21.3014H34.8895L35.0306 21.7248L35.2776 21.4425L35.7362 21.3014L36.0538 21.6189L36.3008 21.8306L36.1949 22.6421L37.0417 23.1713L37.1828 23.4889H37.6415L38.0296 23.7711L37.6415 24.4062H36.9358L37.6415 25.5352L39.1586 24.9002L39.5467 25.5352C39.5467 25.6881 39.582 25.9939 39.7231 25.9939H40.3229L40.8169 26.3115L40.958 26.7701H41.6637L42.334 26.3115L42.8985 26.7701H44.8391L44.7332 27.7933L45.2272 28.3225L45.0155 28.9929L44.2393 29.4516V30.0161L43.1455 30.757L41.6637 32.0625L40.8169 32.3447L39.5467 32.7328V32.0625L38.5588 32.3447L37.8532 33.9324V34.7086L37.2887 34.8498L37.1828 36.6491L36.9358 36.7903V37.5665L36.4066 37.9193L37.1828 38.5897L38.206 39.1895L39.0528 38.8719H40.3229L40.4641 38.5897L41.9812 37.2489L43.4278 36.7903L43.8159 37.2489L44.2393 37.0373L44.8391 37.3901L46.2856 37.2489V42.753L45.8622 43.1764L44.7332 43.4586L44.3451 44.3407L42.6868 44.6229L42.1576 44.3407H40.9227L40.4641 45.2933L39.0528 45.1522L37.6768 44.6229L36.9358 43.4586L36.4066 43.5998L36.3008 42.753L36.7241 42.8941L36.4066 41.8004H35.9126L35.701 40.4596H33.4076L33.9016 41.2006L33.1606 41.6592L32.4197 40.9536V41.5534L34.0427 43.4586L33.9016 44.3407L32.4197 43.5998L31.1495 43.9173L29.3854 41.6592L29.1385 39.6129L27.6213 38.5897L26.4217 37.6018L26.0336 37.7076L24.9399 36.9314L25.4691 36.755L24.9399 36.4727V35.8377L24.4459 35.4143L24.1989 35.9788L23.8814 35.4143V34.9203L22.576 35.4143L22.9288 35.8377L22.7171 35.9788V36.755L23.8814 37.7076L24.1989 38.7308L25.1868 39.4717L26.2453 39.7187L25.8925 40.1774L27.7977 41.0947L28.4328 41.8004V42.2943L28.08 42.1532L27.9389 42.0473L27.7977 41.6592L27.6213 41.5534L27.0215 41.3417C26.9039 41.5769 26.6687 42.0967 26.6687 42.2943C26.6687 42.4919 26.998 42.6824 27.1627 42.753L27.0215 43.2116L26.6687 43.4586V43.9173L26.4217 44.3407L26.2453 44.6229H25.7514V44.3407L25.8925 43.9173V43.5998L26.2453 43.4586L26.0336 43.2116L25.7514 42.4707V41.9062L25.4691 42.0473L24.9399 41.6592V41.2006H24.4459V41.0947H24.1989L23.8814 40.4596H23.1758L21.2352 38.5897L20.9177 37.4606L19.6475 36.3316L18.5185 36.9314L17.2131 37.8135L15.202 36.9314L14.2846 37.4606L14.1082 38.8719L12.9792 39.3306L11.8149 39.4717L11.709 39.7187L10.2977 41.0947L10.4742 42.2943L9.30984 43.2116H8.63948L7.68686 44.0584L5.32295 43.5998L4.01751 44.0584L3.27658 42.2943L1.37134 41.8004L1.86529 40.1774L1.68888 39.2248L3.27658 35.9788L3.41771 34.4616L5.04069 34.1794L7.89855 35.4143L10.2977 36.1199L11.2856 33.1209L10.7211 31.2157L9.34512 30.3336L9.02758 30.0514L9.20399 29.7338L9.02758 29.3457L9.34512 29.2046L9.76851 29.0282V29.3457H10.1213L10.2977 29.2046H10.7211V29.5927L11.6738 29.7338L11.8149 29.2046L11.6738 28.9223L11.8149 28.5342H12.2735V28.9223L13.2615 29.2046L13.5084 28.6401H14.3199L14.6727 28.1814L14.9197 27.511L15.7312 27.3699L16.331 27.1582L17.2483 26.3467L17.707 25.1119V25.7117V26.3467L18.0951 26.0292L17.9893 25.5705L18.0951 25.1119H19.2241L19.4006 24.9002H19.9651L20.1768 25.1119L20.7413 24.9002V24.6532L20.6002 24.3356V24.0887L20.1768 23.7711L20.6002 23.63V22.9949V22.8538L20.1768 22.6421L20.3532 22.254V21.6189L20.459 21.3014L20.6002 21.6189L20.8471 21.4425L20.9883 21.3014L20.459 21.0544L20.7413 20.7721L21.2352 20.7016L21.6233 20.384L22.082 20.0312L22.2231 20.5252L21.9762 21.0544V21.4425L22.4348 21.6189L21.9762 22.1481L21.4116 23.1713L21.5175 23.63V23.9828L21.7998 24.1945L22.329 24.0887L22.3643 24.3356L22.082 24.6532L22.8229 24.5473L23.3169 24.1945H23.5991L23.705 24.0887L23.9167 23.9475L24.0578 23.9828L24.0225 24.1945V24.4062L24.6223 25.1119L25.1516 24.6532L25.8572 24.4062L26.1042 24.1945L26.5276 23.9475L26.9157 23.63H27.3391L27.586 23.7711V24.1945H28.5034L28.7856 23.7711L28.6092 23.4889H29.2443L29.456 23.1713V22.8538L29.1032 22.0776V21.4425L29.2443 21.0544L29.456 20.384L29.7735 20.0312H30.1616L30.3733 20.5252L30.9731 20.7721L31.2201 20.384V19.6431V18.9375L30.9731 19.2197L30.6909 18.9375L30.3733 18.4082L30.6909 17.8437L31.5729 17.385L32.1022 17.2086L32.5256 17.385L33.4076 17.2792L33.2312 17.7732L32.8431 17.9143L32.7372 18.1613L33.4076 19.2197Z" stroke="black" stroke-width="0.214901"/>
<path d="M11.7797 18.0907L12.3442 17.3497H12.5207L13.6144 17.7378L12.7676 18.3024V18.6905L14.1084 19.008L13.2263 20.137L13.0852 20.4193L12.5207 20.7721L13.2263 20.878L13.6144 21.76L13.7555 22.6421L14.2848 23.4536L14.1436 23.8417L13.9319 23.9122L14.2848 24.1592L14.2142 24.8296H14.0025L14.1436 25.1824L14.6023 24.9707L15.2374 25.5352L14.2142 26.7348L14.7434 27.1935L14.0731 27.6169L12.5207 27.264L11.7092 27.4405L11.1799 27.0171L10.5096 27.4052L9.02772 27.1935L10.6507 26.2409L11.1799 26.5584L11.7797 26.135L9.94506 25.6411V25.1118L10.8977 24.9707L10.9682 24.512V24.3003L10.6507 24.3356V24.1239L10.8977 23.9828L10.7918 23.8417L10.8977 23.5947L11.2858 23.8417L11.9209 23.9828L12.0973 23.3124L12.4501 23.0655H12.0973L11.9209 22.2892L12.3442 22.007H11.4622L10.8977 21.6189L11.5328 21.0896L11.4622 20.5957L11.2858 21.1249L10.8977 20.9838L11.3916 19.6784L10.8977 19.8901L10.7918 19.6078L11.2858 19.0786L10.8977 18.3024L11.2858 18.0907L11.4622 18.6905L11.7797 18.0907Z" stroke="#00FF00" stroke-width="0.0705645"/>
<path d="M8.28679 21.6189H8.60433V21.0896L8.85131 20.7721H9.76865V20.9838H10.5096L10.6507 22.1481L9.94506 22.6421L9.76865 23.8417L9.02772 24.6179L8.28679 24.512L6.59324 24.8296L6.20514 23.5947H6.59324L7.12248 23.4536L7.19304 22.9949L7.54586 22.7832L7.12248 22.1481L7.54586 22.007L7.33417 21.76L7.54586 21.3719H7.8634L8.28679 21.6189Z" stroke="#00FF00" stroke-width="0.0705645"/>
<path d="M6.73444 8.84682L6.09936 7.96476L5.04089 7.25912L5.11146 6.97686L5.71126 7.08271L6.06408 6.80045L5.74654 6.6946L5.99351 6.44763L5.14674 5.95368L5.25259 5.77726L5.85238 5.91839L6.20521 6.20065L6.34634 6.13009L6.09936 5.81255L6.34634 5.77726L6.45218 5.67142L5.429 5.14218L5.35843 4.85993L5.95823 4.78936L6.06408 4.68351L6.38162 4.54239L6.59331 5.00105L6.62859 4.33069L6.91085 4.29541L7.12255 5.35388L6.91085 5.67142L6.94613 5.98896L7.19311 5.74198L7.33424 5.95368L7.75763 5.42444L7.89875 5.95368L8.0046 5.60085H8.42799L8.56912 5.98896L8.6044 5.77726L8.71025 5.74198L8.74553 6.02424H9.09835H9.45117L9.804 5.88311L10.0863 6.55347V6.94158L10.3685 7.25912V7.96476L9.804 8.31758L9.23948 8.59984L8.0046 8.84682H6.73444Z" stroke="black" stroke-width="0.236391"/>
<path d="M31.3967 5.21276L31.0086 4.22485L30.3382 4.57768L29.8443 6.20066H28.6799L27.9743 5.60086L27.1981 6.83574L25.1517 9.58775L24.5519 11.5988V12.1986H23.9521L23.3523 13.2924V14.3156V15.2682L23.9521 15.7974L23.3523 16.1502V16.9265V17.6321L22.9642 18.5142H22.5761" stroke="#F41212" stroke-width="0.0705645"/>
<path d="M24.6224 25.0765L24.6577 25.8175L24.4107 26.1703L24.6577 26.4173L24.9047 27.1935L24.7988 27.6521L25.0105 28.1461L24.9399 28.4283L26.2101 28.9929V29.5574L26.5982 28.9929L27.1274 29.3104L27.3391 29.5574L27.9036 29.8396L28.1153 30.1925H28.6799L28.9974 30.4394L29.4561 30.1925L29.7736 30.4394L30.1264 30.1925H30.7615L31.1849 30.4394H31.4672L31.1849 29.8396L31.9611 28.7459L32.1728 28.4283L31.7141 27.4404L31.4672 26.6642L31.1849 26.4173L31.4672 25.8175L31.7141 25.3235L31.1849 24.0533H30.5851H28.574" stroke="#0000FF" stroke-width="0.0705645"/>
<path d="M25.0105 28.5696L24.4812 28.2873V28.5696L22.823 29.2752L23.1758 29.5575V29.9103L24.1284 31.251L23.705 31.6391L23.1758 31.9214L23.4933 32.5918L22.823 32.4154L22.3643 32.5918L21.9409 32.8035L21.4823 32.4154L21.1294 32.8035L20.7413 32.4154L20.4591 32.5918L19.7534 32.1331L18.8008 32.4154L19.577 30.6512L18.448 30.3337L18.0246 29.1341L18.448 28.5696L18.201 28.2873L18.448 27.0877H18.8008L19.1536 26.3468L18.8008 26.0998L19.3653 25.6059L19.1536 25.1472" stroke="#F41212" stroke-width="0.0705645"/>
<path d="M23.8816 34.8498V34.1441V33.8619L23.2113 33.7208L22.6467 33.3679L21.9058 33.2621L21.5883 33.5091L21.2707 33.3679L21.2002 33.6149H20.7415L20.9179 34.1441L20.2475 33.7208L19.8947 34.6381L19.5066 33.8619L19.0127 34.2853H18.1306V35.0615L17.6367 35.3085L17.8836 35.6613L18.1306 35.8024L17.8836 35.9435V36.2611L18.6246 36.8609" stroke="#0000FF" stroke-width="0.0705645"/>
<g filter="url(#filter0_d)">
<path d="M26.8454 32.4859V31.9919L27.4452 32.38L28.1861 32.3095L28.1155 31.9919H28.5742V31.8155L29.0681 31.8861V31.7097L29.4562 31.6038V31.3215L30.3736 31.1804L30.5853 31.4627L30.9381 31.3215L31.7496 31.7097L31.1145 32.2036L30.3736 33.8972L29.7385 34.2853H29.0681L27.9391 34.8498L27.4452 34.7086L26.2808 34.0383L26.1044 33.4738L26.2808 33.4032L26.422 32.9798L26.2808 32.6976V32.38L26.8454 32.4859Z" stroke="#00FF00" stroke-width="0.0705645"/>
</g>
<defs>
<filter id="filter0_d" x="25.7788" y="31.1423" width="6.31981" height="4.30965" filterUnits="userSpaceOnUse" color-interpolation-filters="sRGB">
<feFlood flood-opacity="0" result="BackgroundImageFix"/>
<feColorMatrix in="SourceAlpha" type="matrix" values="0 0 0 0 0 0 0 0 0 0 0 0 0 0 0 0 0 0 127 0"/>
<feOffset dy="0.282258"/>
<feGaussianBlur stdDeviation="0.141129"/>
<feColorMatrix type="matrix" values="0 0 0 0 0 0 0 0 0 0 0 0 0 0 0 0 0 0 0.25 0"/>
<feBlend mode="normal" in2="BackgroundImageFix" result="effect1_dropShadow"/>
<feBlend mode="normal" in="SourceGraphic" in2="effect1_dropShadow" result="shape"/>
</filter>
</defs>
</svg>

<svg xmlns="http://www.w3.org/2000/svg" width="48" height="48" fill="none" xmlns:v="https://vecta.io/nano"><path d="M24.622 22.995h-.988l-.141-.917.212-.459-.529-.564-.353-1.27-.212-.423v-.776l-.388-.811v.282l-.247.529-.176-.176-1.623 1.376-1.2-1.2.247-.282.177-.247.106-.423-.282.141-.247.141.106-.635-.106-1.129.247-.6v-.423-.459l.953-.776h.564l-.282-.423.529-.176.176.388v-.388l.811-.459.635.282.353-.847-.529.706-.459-.353.847-.917h.353l.212-.706h.317v-.706l.353-.565h.318v-.247l-.318-.212.882-.917-.176-.247.494-.141V7.79l-.212-.282.282-.353h.423l-.071-.282.212-.388.106-.247.282-.212-.176-.141-.106-.318.423-.282v.6l.212-.247.106-.282-.106-.318.388-.318v.388l.282-.071-.141-.423.388-.212v.635l.212-.318.212.176.177-.176-.282-.388.247-.176.706.353-.071-.953.318.247.141-.706.212.176V2.99h.282l-.353 1.27h.247l.318-1.129.141-.035-.035.706h.247V3.06l.529-.318v.247l-.106.565h.176l.176-.565.988.6-.353.282h-.494l.035.212.882.423-.565.847-.529-.247-.071.635.494-.212v.706l.176.141.847.706-.141.318-.212.67.847 1.2-.106.212.106 1.058h.282v.459l.353.388-.176.529.988.706v.494l-1.552 2.823-2.681 1.27-.706-.6-.564-.141.07-.741.071-.6-.247-.282-.176-1.164.494-.706 1.058-1.835.423-.388-.07-.459-.67-.423-.917.071-.423.6-.176.741.282.423-.282.565-1.235 1.2-.564 1.2v1.799l1.058.917v.247l-1.341 1.588-.141 1.835-.247.776-.388.317h-.529l-.318.282v.565zm8.786-3.775l-.176.564.459.6.317.388.212.529.353.317v-.317h.318l.141.423.247-.282.459-.141.318.317.247.212-.106.811.847.529.141.318h.459l.388.282-.388.635h-.706l.706 1.129 1.517-.635.388.635c0 .153.035.459.176.459h.6l.494.318.141.459h.706l.67-.459.564.459h1.941l-.106 1.023.494.529-.212.67-.776.459v.565l-1.094.741-1.482 1.305-.847.282-1.27.388v-.67l-.988.282-.706 1.588v.776l-.565.141-.106 1.799-.247.141v.776l-.529.353.776.67 1.023.6.847-.318h1.27l.141-.282 1.517-1.341 1.447-.459.388.459.423-.212.6.353 1.447-.141v5.504l-.423.423-1.129.282-.388.882-1.658.282-.529-.282h-1.235l-.459.953-1.411-.141-1.376-.529-.741-1.164-.529.141-.106-.847.423.141-.318-1.094h-.494l-.212-1.341h-2.293l.494.741-.741.459-.741-.706v.6l1.623 1.905-.141.882-1.482-.741-1.27.317-1.764-2.258-.247-2.046-1.517-1.023-1.2-.988-.388.106-1.094-.776.529-.176-.529-.282v-.635l-.494-.423-.247.565-.317-.565v-.494l-1.305.494.353.423-.212.141v.776l1.164.953.317 1.023.988.741 1.058.247-.353.459 1.905.917.635.706v.494l-.353-.141-.141-.106-.141-.388-.176-.106-.6-.212c-.118.235-.353.755-.353.953s.329.388.494.459l-.141.459-.353.247v.459l-.247.423-.176.282h-.494v-.282l.141-.423V43.6l.353-.141-.212-.247-.282-.741v-.565l-.282.141-.529-.388V41.2h-.494v-.106h-.247l-.317-.635h-.706l-1.941-1.87-.317-1.129-1.27-1.129-1.129.6-1.305.882-2.011-.882-.917.529-.176 1.411-1.129.459-1.164.141-.106.247-1.411 1.376.176 1.2-1.164.917h-.67l-.953.847-2.364-.459-1.305.459-.741-1.764-1.905-.494.494-1.623-.176-.953 1.588-3.246.141-1.517 1.623-.282 2.858 1.235 2.399.706.988-2.999-.565-1.905-1.376-.882-.318-.282.176-.318-.176-.388.318-.141.423-.176v.318h.353l.176-.141h.423v.388l.953.141.141-.529-.141-.282.141-.388h.459v.388l.988.282.247-.564h.812l.353-.459.247-.67.811-.141.6-.212.917-.812.459-1.235v.6.635l.388-.317-.106-.459.106-.459h1.129l.177-.212h.564l.212.212.564-.212v-.247l-.141-.318v-.247l-.423-.318.423-.141v-.635-.141l-.423-.212.176-.388v-.635l.106-.317.141.317.247-.176.141-.141-.529-.247.282-.282.494-.07.388-.318.459-.353.141.494-.247.529v.388l.459.176-.459.529-.565 1.023.106.459v.353l.282.212.529-.106.035.247-.282.318.741-.106.494-.353h.282l.106-.106.212-.141.141.035-.035.212v.212l.6.706.529-.459.706-.247.247-.212.423-.247.388-.318h.423l.247.141v.423h.917l.282-.423-.176-.282h.635l.212-.318v-.317l-.353-.776v-.635l.141-.388.212-.67.317-.353h.388l.212.494.6.247.247-.388v-.741-.706l-.247.282-.282-.282-.318-.529.318-.565.882-.459.529-.176.423.176.882-.106-.176.494-.388.141-.106.247.67 1.058z" stroke="#000" stroke-width=".215"/><path d="M11.78 18.091l.565-.741h.176l1.094.388-.847.565v.388l1.341.317-.882 1.129-.141.282-.565.353.706.106.388.882.141.882.529.812-.141.388-.212.07.353.247-.071.67h-.212l.141.353.459-.212.635.564-1.023 1.2.529.459-.67.423-1.552-.353-.812.177-.529-.423-.67.388-1.482-.212 1.623-.953.529.317.6-.423-1.835-.494v-.529l.953-.141.07-.459V24.3l-.317.035v-.212l.247-.141-.106-.141.106-.247.388.247.635.141.176-.67.353-.247h-.353l-.176-.776.423-.282h-.882l-.564-.388.635-.529-.071-.494-.176.529-.388-.141.494-1.305-.494.212-.106-.282.494-.529-.388-.776.388-.212.176.6.318-.6zm-3.493 3.528h.318v-.529l.247-.318h.917v.212h.741l.141 1.164-.706.494-.176 1.2-.741.776-.741-.106-1.694.318-.388-1.235h.388l.529-.141.071-.459.353-.212-.423-.635.423-.141-.212-.247.212-.388h.318l.423.247z" stroke="#0f0" stroke-width=".071"/><path d="M6.734 8.847l-.635-.882-1.058-.706.071-.282.6.106.353-.282-.318-.106.247-.247-.847-.494.106-.176.6.141.353.282.141-.071-.247-.318.247-.035.106-.106-1.023-.529-.071-.282.6-.071.106-.106.318-.141.212.459.035-.67.282-.035.212 1.058-.212.318.035.318.247-.247.141.212.423-.529.141.529.106-.353h.423l.141.388.035-.212.106-.035.035.282h.353.353l.353-.141.282.67v.388l.282.318v.706l-.564.353-.565.282-1.235.247h-1.27z" stroke="#000" stroke-width=".236"/><g stroke-width=".071"><path d="M31.397 5.213l-.388-.988-.67.353-.494 1.623H28.68l-.706-.6-.776 1.235-2.046 2.752-.6 2.011v.6h-.6l-.6 1.094v1.023.953l.6.529-.6.353v.776.706l-.388.882h-.388" stroke="#f41212"/><path d="M24.622 25.077l.035.741-.247.353.247.247.247.776-.106.459.212.494-.071.282 1.27.565v.565l.388-.565.529.318.212.247.565.282.212.353h.565l.317.247.459-.247.317.247.353-.247h.635l.423.247h.282l-.282-.6.776-1.094.212-.318-.459-.988-.247-.776-.282-.247.282-.6.247-.494-.529-1.27h-2.611" stroke="#00f"/><path d="M25.011 28.57l-.529-.282v.282l-1.658.706.353.282v.353l.953 1.341-.423.388-.529.282.318.67-.67-.176-.459.176-.423.212-.459-.388-.353.388-.388-.388-.282.176-.706-.459-.953.282.776-1.764-1.129-.317-.423-1.2.423-.564-.247-.282.247-1.2h.353l.353-.741-.353-.247.565-.494-.212-.459" stroke="#f41212"/><path d="M23.882 34.85v-.706-.282l-.67-.141-.565-.353-.741-.106-.317.247-.318-.141-.071.247h-.459l.176.529-.67-.423-.353.917-.388-.776-.494.423h-.882v.776l-.494.247.247.353.247.141-.247.141v.318l.741.6" stroke="#00f"/></g><g filter="url(#A)"><path d="M26.845 32.486v-.494l.6.388.741-.071-.071-.318h.459v-.176l.494.071v-.176l.388-.106v-.282l.917-.141.212.282.353-.141.812.388-.635.494-.741 1.694-.635.388h-.67l-1.129.565-.494-.141-1.164-.67-.176-.565.176-.071.141-.423-.141-.282v-.318l.565.106z" stroke="#0f0" stroke-width=".071"/></g><defs><filter id="A" x="25.779" y="31.142" width="6.32" height="4.31" filterUnits="userSpaceOnUse" color-interpolation-filters="sRGB"><feFlood flood-opacity="0" result="A"/><feColorMatrix in="SourceAlpha" values="0 0 0 0 0 0 0 0 0 0 0 0 0 0 0 0 0 0 127 0"/><feOffset dy="0.282258"/><feGaussianBlur stdDeviation=".141"/><feColorMatrix values="0 0 0 0 0 0 0 0 0 0 0 0 0 0 0 0 0 0 0.25 0"/><feBlend in2="A"/><feBlend in="SourceGraphic"/></filter></defs></svg>
